docs/graphify-batches/corpora/workers-real/openchatcut/assets/luts/CinemaGamut_CanonLog3-to-Canon709_33_Ver.1.0.cube
# Gamut : Cinema Gamut to BT.709
# Gamma : Canon Log 3 to Canon 709
# Range : Full in / Full out
# Version : 1.0
# Creation Date: 2025/6/24
# Copyright(c) 2025 Canon Inc. All Rights Reserved.
LUT_3D_SIZE 5
# LUT_3D_INPUT_RANGE 0.0 1.0
0.00000000 0.00000000 0.00000000
0.36294994 0.00000000 0.00000000
0.86274423 0.00000000 0.10130748
1.00000000 0.06648353 0.13734248
1.00000000 0.20685908 0.13341618
0.00000000 0.22908828 0.00000000
0.24137439 0.25977858 0.00000000
0.92018074 0.12334375 0.00000000
1.00000000 0.28408961 0.23473501
1.00000000 0.35086378 0.27100074
0.00000000 0.65142830 0.03346260
0.00000000 0.69305020 0.00000000
0.70758839 0.75454948 0.00000000
1.00000000 0.68885177 0.45378740
1.00000000 0.70136391 0.61413344
0.00000000 0.87370003 0.00000000
0.00000000 0.90587960 0.00000000
0.02676047 1.00000000 0.00000000
0.92151313 0.99495331 0.00000000
1.00000000 0.89264690 0.75964672
0.00000000 0.92796910 0.00000000
0.00000000 0.95946033 0.00000000
0.37643806 1.00000000 0.17068336
0.81154771 1.00000000 0.67116305
0.97236766 1.00000000 0.76141139
0.01307243 0.00000000 0.27574246
0.30730108 0.00000000 0.26461932
0.81938516 0.00000000 0.30318505
1.00000000 0.02365214 0.22236494
1.00000000 0.18971445 0.13397179
0.00000000 0.24564300 0.22797679
0.24387062 0.24387062 0.24387062
0.92092436 0.04145115 0.24126604
1.00000000 0.26440003 0.29161857
1.00000000 0.33921614 0.27025297
0.00000000 0.74734933 0.16095202
0.00000000 0.78634390 0.00000000
0.74624795 0.79442254 0.00000000
1.00000000 0.71079303 0.50882063
1.00000000 0.72132318 0.64121159
0.00000000 0.94595183 0.00000000
0.00000000 0.97549048 0.00000000
0.38222036 1.00000000 0.01073549
0.94008355 1.00000000 0.33705580
1.00000000 0.92020549 0.82467847
0.00000000 0.99361443 0.00000000
0.00000000 1.00000000 0.00000000
0.59816271 1.00000000 0.45986438
0.90274042 1.00000000 0.82859801
1.00000000 1.00000000 1.00000000
0.05281692 0.00000000 0.64579798
0.20983706 0.00000000 0.54412536
0.72739998 0.00000000 0.60424392
1.00000000 0.00000000 0.47815103
1.00000000 0.12017019 0.28270027
0.00000000 0.17432089 0.54188954
0.06097393 0.00000000 0.68490487
0.79797988 0.00000000 0.67931903
1.00000000 0.06843081 0.49740269
1.00000000 0.23562700 0.33328897
0.00000000 0.70877994 0.66781727
0.00000000 0.73388748 0.69188244
0.71928286 0.71928648 0.71928473
1.00000000 0.70175040 0.72191345
1.00000000 0.73819102 0.72152767
0.00000000 1.00000000 0.17549597
0.00000000 1.00000000 0.19930021
0.59972359 1.00000000 0.51916003
0.95971898 1.00000000 0.67577094
1.00000000 0.97800713 0.95055456
0.31295475 1.00000000 0.22108382
0.43396989 1.00000000 0.33389930
0.82731899 1.00000000 0.76220552
1.00000000 1.00000000 1.00000000
1.00000000 1.00000000 1.00000000
0.00000000 0.07815341 0.74631545
0.00000000 0.00000000 0.78476216
0.55675745 0.00000000 0.88364375
0.94745824 0.00000000 0.75788800
1.00000000 0.00720268 0.52050156
0.00000000 0.19325866 0.69352716
0.00000000 0.08306387 0.78322985
0.54567308 0.00000000 0.94333856
0.97535571 0.00000000 0.78113691
1.00000000 0.06196401 0.52773185
0.00000000 0.60031282 0.93789528
0.00000000 0.61673250 0.99424898
0.60020686 0.66030472 1.00000000
1.00000000 0.61496364 0.93404519
1.00000000 0.68042051 0.78987448
0.00000000 0.95605076 0.89556342
0.00000000 0.97497987 0.91340415
0.16840084 1.00000000 0.96613118
0.95326666 0.95327613 0.95327157
1.00000000 0.96114180 0.96285520
0.00000000 1.00000000 0.31433083
0.24395028 1.00000000 0.39028552
0.76631045 1.00000000 0.74900776
1.00000000 1.00000000 1.00000000
1.00000000 1.00000000 1.00000000
0.00000000 0.20469794 0.60845660
0.00000000 0.18448806 0.59280579
0.12662618 0.14654113 1.00000000
0.73020352 0.00000000 1.00000000
1.00000000 0.00000000 0.79448140
0.00000000 0.23563133 0.66303840
0.00000000 0.21309768 0.64221387
0.08260062 0.13615576 1.00000000
0.73192887 0.00000000 1.00000000
1.00000000 0.00000000 0.80287828
0.10766402 0.53763328 1.00000000
0.19253016 0.56094164 1.00000000
0.48950863 0.67106317 1.00000000
0.88042357 0.65546736 1.00000000
1.00000000 0.64730824 0.91089718
0.29783801 0.83270577 1.00000000
0.36842891 0.84632718 1.00000000
0.67956981 0.91432632 1.00000000
0.92090800 0.94395667 1.00000000
1.00000000 0.94575185 0.99142828
0.00000000 1.00000000 0.95510931
0.00000000 1.00000000 0.96967837
0.56462944 1.00000000 0.99095404
1.00000000 1.00000000 1.00000000
1.00000000 1.00000000 1.00000000
