docs/graphify-batches/corpora/workers-real/openchatcut/assets/luts/CinemaGamut_CanonLog3-to-Canon709_33_Ver.1.0.cube
# Gamut : Cinema Gamut to BT.709
# Gamma : Canon Log 3 to Canon 709
# Range : Full in / Full out
# Version : 1.0
# Creation Date: 2025/6/24
# Copyright(c) 2025 Canon Inc. All Rights Reserved.
LUT_3D_SIZE 9
# LUT_3D_INPUT_RANGE 0.0 1.0
0.00000000 0.00000000 0.00000000
0.00000000 0.00000000 0.00000000
0.36294994 0.00000000 0.00000000
0.63760654 0.00000000 0.04618612
0.86274423 0.00000000 0.10130748
1.00000000 0.00000000 0.10847637
1.00000000 0.06648353 0.13734248
1.00000000 0.16787550 0.14333145
1.00000000 0.20685908 0.13341618
0.00000000 0.00000000 0.00000000
0.00000000 0.01015725 0.00000000
0.36294994 0.00000000 0.00000000
0.63760654 0.00000000 0.04618612
0.86274423 0.00000000 0.10130748
1.00000000 0.00000000 0.10847637
1.00000000 0.06648353 0.13734248
1.00000000 0.16787550 0.14333145
1.00000000 0.20685908 0.13341618
0.00000000 0.22908828 0.00000000
0.00000000 0.22908828 0.00000000
0.24137439 0.25977858 0.00000000
0.59800478 0.24224379 0.00000000
0.92018074 0.12334375 0.00000000
1.00000000 0.18870319 0.13450356
1.00000000 0.28408961 0.23473501
1.00000000 0.32984662 0.26592799
1.00000000 0.35086378 0.27100074
0.00000000 0.45172576 0.04943316
0.00000000 0.45172576 0.04943316
0.09983914 0.49401712 0.00000000
0.49230029 0.52410197 0.00000000
0.87644021 0.48095758 0.00000000
1.00000000 0.45706859 0.18147877
1.00000000 0.50509901 0.37686020
1.00000000 0.53069391 0.43905667
1.00000000 0.54218358 0.45911421
0.00000000 0.65142830 0.03346260
0.00000000 0.65142830 0.03346260
0.00000000 0.69305020 0.00000000
0.29409798 0.74487304 0.00000000
0.70758839 0.75454948 0.00000000
1.00000000 0.68567148 0.00000000
1.00000000 0.68885177 0.45378740
1.00000000 0.69802384 0.57485160
1.00000000 0.70136391 0.61413344
0.00000000 0.79197919 0.00000000
0.00000000 0.79197919 0.00000000
0.00000000 0.82874344 0.00000000
0.00000000 0.89182156 0.00000000
0.41215533 0.93675110 0.00000000
0.84932057 0.90992214 0.00000000
1.00000000 0.84048658 0.34098964
1.00000000 0.82379692 0.64694196
1.00000000 0.81344809 0.71483060
0.00000000 0.87370003 0.00000000
0.00000000 0.87370003 0.00000000
0.00000000 0.90587960 0.00000000
0.00000000 0.97116239 0.00000000
0.02676047 1.00000000 0.00000000
0.58745555 1.00000000 0.00000000
0.92151313 0.99495331 0.00000000
1.00000000 0.92241545 0.58818734
1.00000000 0.89264690 0.75964672
0.00000000 0.91150572 0.00000000
0.00000000 0.91150572 0.00000000
0.00000000 0.94244414 0.00000000
0.00000000 1.00000000 0.00000000
0.27728437 1.00000000 0.00000000
0.63686917 1.00000000 0.40245105
0.80713777 1.00000000 0.53383759
0.95123456 1.00000000 0.53894459
1.00000000 0.95942470 0.72748152
0.00000000 0.92796910 0.00000000
0.00000000 0.92796910 0.00000000
0.00000000 0.95946033 0.00000000
0.00000000 1.00000000 0.00000000
0.37643806 1.00000000 0.17068336
0.67194209 1.00000000 0.51696051
0.81154771 1.00000000 0.67116305
0.89593336 1.00000000 0.74297103
0.97236766 1.00000000 0.76141139
0.00000000 0.00000000 0.00000000
0.00000000 0.00000000 0.00000000
0.36294994 0.00000000 0.00000000
0.63760654 0.00000000 0.04618612
0.86274423 0.00000000 0.10130748
1.00000000 0.00000000 0.10847637
1.00000000 0.06648353 0.13734248
1.00000000 0.16787550 0.14333145
1.00000000 0.20685908 0.13341618
0.00000000 0.00000000 0.00000000
0.00920852 0.00920852 0.00920852
0.36294994 0.00000000 0.00000000
0.63760654 0.00000000 0.04618612
0.86274423 0.00000000 0.10130748
1.00000000 0.00000000 0.10847637
1.00000000 0.06648353 0.13734248
1.00000000 0.16787550 0.14333145
1.00000000 0.20685908 0.13341618
0.00000000 0.22908828 0.00000000
0.00000000 0.22908828 0.00000000
0.24137439 0.25977858 0.00000000
0.59800478 0.24224379 0.00000000
0.92018074 0.12334375 0.00000000
1.00000000 0.18870319 0.13450356
1.00000000 0.28408961 0.23473501
1.00000000 0.32984662 0.26592799
1.00000000 0.35086378 0.27100074
0.00000000 0.45172576 0.04943316
0.00000000 0.45172576 0.04943316
0.09983914 0.49401712 0.00000000
0.49230029 0.52410197 0.00000000
0.87644021 0.48095758 0.00000000
1.00000000 0.45706859 0.18147877
1.00000000 0.50509901 0.37686020
1.00000000 0.53069391 0.43905667
1.00000000 0.54218358 0.45911421
0.00000000 0.65142830 0.03346260
0.00000000 0.65142830 0.03346260
0.00000000 0.69305020 0.00000000
0.29409798 0.74487304 0.00000000
0.70758839 0.75454948 0.00000000
1.00000000 0.68567148 0.00000000
1.00000000 0.68885177 0.45378740
1.00000000 0.69802384 0.57485160
1.00000000 0.70136391 0.61413344
0.00000000 0.79197919 0.00000000
0.00000000 0.79197919 0.00000000
0.00000000 0.82874344 0.00000000
0.00000000 0.89182156 0.00000000
0.41215533 0.93675110 0.00000000
0.84932057 0.90992214 0.00000000
1.00000000 0.84048658 0.34098964
1.00000000 0.82379692 0.64694196
1.00000000 0.81344809 0.71483060
0.00000000 0.87370003 0.00000000
0.00000000 0.87370003 0.00000000
0.00000000 0.90587960 0.00000000
0.00000000 0.97116239 0.00000000
0.02676047 1.00000000 0.00000000
0.58745555 1.00000000 0.00000000
0.92151313 0.99495331 0.00000000
1.00000000 0.92241545 0.58818734
1.00000000 0.89264690 0.75964672
0.00000000 0.91150572 0.00000000
0.00000000 0.91150572 0.00000000
0.00000000 0.94244414 0.00000000
0.00000000 1.00000000 0.00000000
0.27728437 1.00000000 0.00000000
0.63686917 1.00000000 0.40245105
0.80713777 1.00000000 0.53383759
0.95123456 1.00000000 0.53894459
1.00000000 0.95942470 0.72748152
0.00000000 0.92796910 0.00000000
0.00000000 0.92796910 0.00000000
0.00000000 0.95946033 0.00000000
0.00000000 1.00000000 0.00000000
0.37643806 1.00000000 0.17068336
0.67194209 1.00000000 0.51696051
0.81154771 1.00000000 0.67116305
0.89593336 1.00000000 0.74297103
0.97236766 1.00000000 0.76141139
0.01307243 0.00000000 0.27574246
0.01307243 0.00000000 0.27574246
0.30730108 0.00000000 0.26461932
0.58331318 0.00000000 0.29406868
0.81938516 0.00000000 0.30318505
0.97894228 0.00000000 0.26690741
1.00000000 0.02365214 0.22236494
1.00000000 0.14440083 0.17621042
1.00000000 0.18971445 0.13397179
0.01307243 0.00000000 0.27574246
0.01307243 0.00000000 0.27574246
0.30730108 0.00000000 0.26461932
0.58331318 0.00000000 0.29406868
0.81938516 0.00000000 0.30318505
0.97894228 0.00000000 0.26690741
1.00000000 0.02365214 0.22236494
1.00000000 0.14440083 0.17621042
1.00000000 0.18971445 0.13397179
0.00000000 0.24564300 0.22797679
0.00000000 0.24564300 0.22797679
0.24387062 0.24387062 0.24387062
0.65875262 0.14467319 0.23276728
0.92092436 0.04145115 0.24126604
1.00000000 0.15162318 0.27153213
1.00000000 0.26440003 0.29161857
1.00000000 0.31684331 0.28225895
1.00000000 0.33921614 0.27025297
0.00000000 0.54139653 0.26076681
0.00000000 0.54139653 0.26076681
0.00000000 0.57003134 0.12667128
0.52469733 0.55321428 0.00000000
0.96239720 0.44898950 0.00000000
1.00000000 0.46096626 0.30857358
1.00000000 0.51054046 0.42225884
1.00000000 0.53669270 0.46045678
1.00000000 0.54825519 0.47270095
0.00000000 0.74734933 0.16095202
0.00000000 0.74734933 0.16095202
0.00000000 0.78634390 0.00000000
0.16450625 0.82384639 0.00000000
0.74624795 0.79442254 0.00000000
1.00000000 0.70787535 0.07148464
1.00000000 0.71079303 0.50882063
1.00000000 0.71822480 0.60885172
1.00000000 0.72132318 0.64121159
0.00000000 0.87134222 0.00000000
0.00000000 0.87134222 0.00000000
0.00000000 0.90527125 0.00000000
0.00000000 0.96111360 0.00000000
0.38365099 0.98661677 0.00000000
0.87916630 0.94155273 0.00000000
1.00000000 0.86936698 0.46294982
1.00000000 0.85091279 0.70529545
1.00000000 0.83983798 0.75649911
0.00000000 0.94595183 0.00000000
0.00000000 0.94595183 0.00000000
0.00000000 0.97549048 0.00000000
0.00000000 1.00000000 0.00000000
0.38222036 1.00000000 0.01073549
0.70231845 1.00000000 0.30699455
0.94008355 1.00000000 0.33705580
1.00000000 0.94818879 0.72627147
1.00000000 0.92020549 0.82467847
0.00000000 0.98105384 0.00000000
0.00000000 0.98105384 0.00000000
0.00000000 1.00000000 0.00000000
0.00000000 1.00000000 0.00000000
0.53819535 1.00000000 0.37431946
0.76479538 1.00000000 0.61389526
0.89143604 1.00000000 0.74433650
0.97910263 1.00000000 0.82329233
1.00000000 0.98066092 0.87399784
0.00000000 0.99361443 0.00000000
0.00000000 0.99361443 0.00000000
0.00000000 1.00000000 0.00000000
0.19053339 1.00000000 0.00000000
0.59816271 1.00000000 0.45986438
0.79547772 1.00000000 0.69272973
0.90274042 1.00000000 0.82859801
0.96486743 1.00000000 0.91239459
1.00000000 1.00000000 1.00000000
0.04317555 0.00000000 0.47564603
0.04317555 0.00000000 0.47564603
0.25645608 0.00000000 0.40462113
0.52791375 0.00000000 0.44926899
0.77445708 0.00000000 0.46103944
0.94559911 0.00000000 0.41865062
1.00000000 0.00000000 0.34355336
1.00000000 0.09938644 0.26829308
1.00000000 0.15990906 0.18871845
0.04317555 0.00000000 0.47564603
0.04317555 0.00000000 0.47564603
0.25645608 0.00000000 0.40462113
0.52791375 0.00000000 0.44926899
0.77445708 0.00000000 0.46103944
0.94559911 0.00000000 0.41865062
1.00000000 0.00000000 0.34355336
1.00000000 0.09938644 0.26829308
1.00000000 0.15990906 0.18871845
0.00000000 0.18892085 0.38350166
0.00000000 0.18892085 0.38350166
0.19506524 0.09151034 0.58430622
0.60159270 0.01193560 0.54393987
0.88226071 0.00000000 0.48958177
1.00000000 0.01444083 0.42794542
1.00000000 0.19710505 0.38333915
1.00000000 0.26782991 0.33683332
1.00000000 0.30073334 0.28537354
0.00000000 0.48844710 0.46089052
0.00000000 0.48844710 0.46089052
0.00000000 0.51645045 0.48950223
0.49976507 0.49976580 0.49976545
0.90248664 0.42233371 0.48101712
1.00000000 0.43976677 0.49788733
1.00000000 0.49380037 0.51631107
1.00000000 0.52619323 0.51323497
1.00000000 0.54305393 0.49679898
0.00000000 0.75423689 0.43280741
0.00000000 0.75423689 0.43280741
0.00000000 0.77941775 0.39324542
0.00000000 0.82330873 0.27713530
0.74219246 0.77771943 0.23374951
1.00000000 0.69518180 0.42247415
1.00000000 0.71863678 0.61888276
1.00000000 0.73859247 0.67528794
1.00000000 0.74871636 0.68972952
0.00000000 0.93933961 0.17501275
0.00000000 0.93933961 0.17501275
0.00000000 0.95867285 0.07759854
0.00000000 0.99601740 0.00000000
0.43281908 1.00000000 0.00000000
0.89089106 0.95728416 0.00000000
1.00000000 0.89362285 0.59528773
1.00000000 0.88646543 0.78111096
1.00000000 0.88378167 0.82314062
0.00000000 1.00000000 0.00000000
0.00000000 1.00000000 0.00000000
0.00000000 1.00000000 0.00000000
0.24451435 1.00000000 0.20054286
0.60236524 1.00000000 0.44167245
0.81294824 1.00000000 0.59315567
0.96884021 1.00000000 0.69936568
1.00000000 0.98162817 0.89059994
1.00000000 0.96870646 0.92779109
0.00000000 1.00000000 0.01774966
0.00000000 1.00000000 0.01774966
0.28042686 1.00000000 0.21161167
0.56092812 1.00000000 0.46095938
0.75977908 1.00000000 0.66530207
0.91036968 1.00000000 0.84839735
1.00000000 1.00000000 1.00000000
1.00000000 1.00000000 1.00000000
1.00000000 1.00000000 1.00000000
0.29624586 1.00000000 0.16617500
0.29624586 1.00000000 0.16617500
0.43765302 1.00000000 0.31349475
0.63773889 1.00000000 0.52840136
0.82107276 1.00000000 0.74639791
0.95488014 1.00000000 0.92709307
1.00000000 1.00000000 1.00000000
1.00000000 1.00000000 1.00000000
1.00000000 1.00000000 1.00000000
0.05281692 0.00000000 0.64579798
0.05281692 0.00000000 0.64579798
0.20983706 0.00000000 0.54412536
0.46982037 0.00000000 0.57563384
0.72739998 0.00000000 0.60424392
0.91001253 0.00000000 0.56402033
1.00000000 0.00000000 0.47815103
1.00000000 0.03790345 0.38085479
1.00000000 0.12017019 0.28270027
0.05281692 0.00000000 0.64579798
0.05281692 0.00000000 0.64579798
0.20983706 0.00000000 0.54412536
0.46982037 0.00000000 0.57563384
0.72739998 0.00000000 0.60424392
0.91001253 0.00000000 0.56402033
1.00000000 0.00000000 0.47815103
1.00000000 0.03790345 0.38085479
1.00000000 0.12017019 0.28270027
0.00000000 0.17432089 0.54188954
0.00000000 0.17432089 0.54188954
0.06097393 0.00000000 0.68490487
0.49589705 0.00000000 0.70590153
0.79797988 0.00000000 0.67931903
0.98125216 0.00000000 0.59642007
1.00000000 0.06843081 0.49740269
1.00000000 0.18921352 0.41366619
1.00000000 0.23562700 0.33328897
0.00000000 0.42803544 0.58460301
0.00000000 0.42803544 0.58460301
0.00000000 0.43556832 0.70592403
0.45674821 0.41053704 0.81905791
0.88754331 0.30376761 0.81109841
1.00000000 0.34431131 0.67178695
1.00000000 0.43147069 0.60322006
1.00000000 0.47648311 0.56035958
1.00000000 0.49918084 0.51851408
0.00000000 0.70877994 0.66781727
0.00000000 0.70877994 0.66781727
0.00000000 0.73388748 0.69188244
0.00000000 0.76387412 0.72832596
0.71928286 0.71928648 0.71928473
1.00000000 0.67455473 0.70547604
1.00000000 0.70175040 0.72191345
1.00000000 0.72560096 0.72806356
1.00000000 0.73819102 0.72152767
0.00000000 0.90451364 0.52285435
0.00000000 0.90451364 0.52285435
0.00000000 0.92426844 0.51170365
0.00000000 0.95798272 0.50678900
0.48868471 0.95542714 0.55126542
0.88070564 0.91704642 0.53760132
1.00000000 0.86789189 0.72259408
1.00000000 0.88038705 0.82929039
1.00000000 0.88849575 0.85490156
0.00000000 1.00000000 0.17549597
0.00000000 1.00000000 0.17549597
0.00000000 1.00000000 0.19930021
0.24868554 1.00000000 0.34710967
0.59972359 1.00000000 0.51916003
0.79904324 1.00000000 0.62647521
0.95971898 1.00000000 0.67577094
1.00000000 0.97918013 0.89979718
1.00000000 0.97800713 0.95055456
0.00000000 1.00000000 0.13004985
0.00000000 1.00000000 0.13004985
0.24289407 1.00000000 0.25521504
0.52488635 1.00000000 0.46088556
0.75466470 1.00000000 0.67908325
0.90873527 1.00000000 0.85460790
1.00000000 1.00000000 1.00000000
1.00000000 1.00000000 1.00000000
1.00000000 1.00000000 1.00000000
0.31295475 1.00000000 0.22108382
0.31295475 1.00000000 0.22108382
0.43396989 1.00000000 0.33389930
0.63251805 1.00000000 0.53646949
0.82731899 1.00000000 0.76220552
0.96512710 1.00000000 0.94492661
1.00000000 1.00000000 1.00000000
1.00000000 1.00000000 1.00000000
1.00000000 1.00000000 1.00000000
0.00204367 0.00000000 0.75221237
0.00204367 0.00000000 0.75221237
0.14141398 0.00000000 0.69034558
0.38491292 0.00000000 0.69973056
0.66150217 0.00000000 0.73482494
0.86651788 0.00000000 0.70415842
0.98670975 0.00000000 0.61900157
1.00000000 0.00000000 0.50687513
1.00000000 0.07131648 0.39714078
0.00204367 0.00000000 0.75221237
0.00204367 0.00000000 0.75221237
0.14141398 0.00000000 0.69034558
0.38491292 0.00000000 0.69973056
0.66150217 0.00000000 0.73482494
0.86651788 0.00000000 0.70415842
0.98670975 0.00000000 0.61900157
1.00000000 0.00000000 0.50687513
1.00000000 0.07131648 0.39714078
0.00000000 0.17269569 0.66202650
0.00000000 0.17269569 0.66202650
0.01170049 0.00000000 0.77270421
0.34687610 0.00000000 0.79832166
0.69319490 0.00000000 0.80515352
0.91443274 0.00000000 0.74516834
1.00000000 0.00000000 0.63502890
1.00000000 0.08175398 0.52034928
1.00000000 0.15997308 0.41709974
0.00000000 0.37394764 0.67546609
0.00000000 0.37394764 0.67546609
0.00000000 0.37733237 0.78945465
0.34139801 0.36704882 0.94887029
0.76605884 0.28531035 0.98874073
1.00000000 0.24493525 0.87506265
1.00000000 0.36907906 0.72123224
1.00000000 0.42940146 0.63687901
1.00000000 0.45693578 0.57050795
0.00000000 0.64739254 0.82465841
0.00000000 0.64739254 0.82465841
0.00000000 0.66179191 0.89421769
0.23720054 0.67717242 0.97899570
0.68322264 0.66231738 0.98319854
1.00000000 0.60872574 0.92998409
1.00000000 0.65123561 0.81678419
1.00000000 0.68777700 0.77321420
1.00000000 0.70513951 0.74414750
0.00000000 0.86510365 0.81219627
0.00000000 0.86510365 0.81219627
0.00000000 0.88702557 0.83282449
0.00000000 0.92472258 0.87193813
0.38777591 0.91920806 0.88573462
0.86804369 0.86805069 0.86804732
1.00000000 0.84955019 0.86311450
1.00000000 0.86800734 0.87476090
1.00000000 0.87815110 0.87692660
0.00000000 0.99252977 0.56562041
0.00000000 0.99252977 0.56562041
0.00000000 1.00000000 0.56948512
0.00000000 1.00000000 0.61030243
0.47612419 1.00000000 0.70421745
0.74765922 1.00000000 0.76034695
0.95850240 0.98600399 0.75829354
1.00000000 0.96288545 0.91575081
1.00000000 0.96894860 0.95315202
0.00000000 1.00000000 0.25739651
0.00000000 1.00000000 0.25739651
0.03667722 1.00000000 0.33409101
0.45875199 1.00000000 0.49859615
0.71983318 1.00000000 0.69077400
0.88274626 1.00000000 0.84278043
0.97159797 1.00000000 0.94179825
1.00000000 1.00000000 1.00000000
1.00000000 1.00000000 1.00000000
0.17133399 1.00000000 0.19529369
0.17133399 1.00000000 0.19529369
0.34306383 1.00000000 0.30964541
0.58088915 1.00000000 0.51453150
0.79733775 1.00000000 0.74046593
0.94423552 1.00000000 0.91941280
1.00000000 1.00000000 1.00000000
1.00000000 1.00000000 1.00000000
1.00000000 1.00000000 1.00000000
0.00000000 0.07815341 0.74631545
0.00000000 0.07815341 0.74631545
0.00000000 0.00000000 0.78476216
0.23311233 0.00000000 0.82351659
0.55675745 0.00000000 0.88364375
0.79608619 0.00000000 0.83888566
0.94745824 0.00000000 0.75788800
1.00000000 0.00000000 0.64271987
1.00000000 0.00720268 0.52050156
0.00000000 0.07815341 0.74631545
0.00000000 0.07815341 0.74631545
0.00000000 0.00000000 0.78476216
0.23311233 0.00000000 0.82351659
0.55675745 0.00000000 0.88364375
0.79608619 0.00000000 0.83888566
0.94745824 0.00000000 0.75788800
1.00000000 0.00000000 0.64271987
1.00000000 0.00720268 0.52050156
0.00000000 0.19325866 0.69352716
0.00000000 0.19325866 0.69352716
0.00000000 0.08306387 0.78322985
0.15415217 0.00000000 0.86596476
0.54567308 0.00000000 0.94333856
0.82050379 0.00000000 0.88321670
0.97535571 0.00000000 0.78113691
1.00000000 0.00000000 0.64859135
1.00000000 0.06196401 0.52773185
0.00000000 0.35043308 0.76147899
0.00000000 0.35043308 0.76147899
0.00000000 0.32832999 0.84215540
0.22851630 0.36038850 0.97002475
0.59168428 0.35375768 1.00000000
0.94238921 0.23021763 1.00000000
1.00000000 0.30190317 0.85451882
1.00000000 0.38660631 0.73304440
1.00000000 0.42086477 0.64781258
0.00000000 0.60031282 0.93789528
0.00000000 0.60031282 0.93789528
0.00000000 0.61673250 0.99424898
0.23642442 0.65244549 1.00000000
0.60020686 0.66030472 1.00000000
0.91144260 0.61408931 1.00000000
1.00000000 0.61496364 0.93404519
1.00000000 0.65996526 0.84020473
1.00000000 0.68042051 0.78987448
0.00000000 0.80267573 1.00000000
0.00000000 0.80267573 1.00000000
0.00000000 0.81707087 1.00000000
0.11715704 0.83671421 1.00000000
0.58796889 0.84705993 1.00000000
0.84422570 0.83942833 1.00000000
1.00000000 0.81623894 0.97894489
1.00000000 0.84322359 0.91684237
1.00000000 0.85824981 0.89632987
0.00000000 0.95605076 0.89556342
0.00000000 0.95605076 0.89556342
0.00000000 0.97497987 0.91340415
0.00000000 1.00000000 0.94656585
0.16840084 1.00000000 0.96613118
0.69431020 0.98927492 0.96627789
0.95326666 0.95327613 0.95327157
1.00000000 0.95166950 0.95591690
1.00000000 0.96114180 0.96285520
0.00000000 1.00000000 0.59014572
0.00000000 1.00000000 0.59014572
0.00000000 1.00000000 0.60919080
0.03602133 1.00000000 0.68622948
0.59951296 1.00000000 0.79668963
0.83257336 1.00000000 0.88981636
0.94826635 1.00000000 0.94710805
1.00000000 1.00000000 1.00000000
1.00000000 1.00000000 1.00000000
0.00000000 1.00000000 0.31433083
0.00000000 1.00000000 0.31433083
0.24395028 1.00000000 0.39028552
0.52823543 1.00000000 0.55320379
0.76631045 1.00000000 0.74900776
0.92455098 1.00000000 0.90910319
1.00000000 1.00000000 1.00000000
1.00000000 1.00000000 1.00000000
1.00000000 1.00000000 1.00000000
0.00000000 0.17508247 0.64991290
0.00000000 0.17508247 0.64991290
0.00000000 0.13019009 0.67181980
0.01044952 0.00000000 0.87111469
0.34952759 0.01206355 1.00000000
0.67063859 0.00000000 0.99036314
0.87514113 0.00000000 0.89375289
0.98930307 0.00000000 0.78298317
1.00000000 0.00000000 0.65289043
0.00000000 0.17508247 0.64991290
0.00000000 0.17508247 0.64991290
0.00000000 0.13019009 0.67181980
0.01044952 0.00000000 0.87111469
0.34952759 0.01206355 1.00000000
0.67063859 0.00000000 0.99036314
0.87514113 0.00000000 0.89375289
0.98930307 0.00000000 0.78298317
1.00000000 0.00000000 0.65289043
0.00000000 0.21895024 0.67891310
0.00000000 0.21895024 0.67891310
0.00000000 0.18106198 0.68846486
0.00000000 0.00000000 0.83818515
0.31656001 0.00232327 1.00000000
0.66637896 0.00000000 1.00000000
0.89446471 0.00000000 0.92373566
1.00000000 0.00000000 0.79591053
1.00000000 0.00000000 0.65627055
0.00000000 0.33585367 0.81647539
0.00000000 0.33585367 0.81647539
0.00000000 0.30649634 0.85428551
0.13862582 0.35938775 0.97378801
0.41213627 0.41358771 1.00000000
0.73865520 0.36846854 1.00000000
0.99814082 0.25625234 1.00000000
1.00000000 0.33823453 0.84978122
1.00000000 0.38673074 0.73967855
0.00000000 0.56003569 1.00000000
0.00000000 0.56003569 1.00000000
0.09381541 0.57986329 1.00000000
0.31793423 0.62638275 1.00000000
0.52014152 0.67028947 1.00000000
0.77348925 0.65902915 1.00000000
1.00000000 0.59936060 1.00000000
1.00000000 0.63676812 0.91463669
1.00000000 0.66135383 0.84699205
0.00000000 0.75398311 1.00000000
0.00000000 0.75398311 1.00000000
0.12632389 0.76879139 1.00000000
0.36829077 0.80255567 1.00000000
0.58813380 0.83910564 1.00000000
0.79647686 0.84360101 1.00000000
0.97625142 0.82092799 1.00000000
1.00000000 0.82779483 0.97083700
1.00000000 0.84514968 0.92805720
0.00000000 0.88264164 1.00000000
0.00000000 0.88264164 1.00000000
0.00000000 0.89220168 1.00000000
0.31074970 0.91273343 1.00000000
0.61640921 0.93213137 1.00000000
0.81916694 0.94147585 1.00000000
0.94158612 0.94147336 1.00000000
1.00000000 0.93884436 0.99497105
1.00000000 0.95140635 0.97458134
0.00000000 1.00000000 0.93692574
0.00000000 1.00000000 0.93692574
0.00000000 1.00000000 0.95172377
0.00000000 1.00000000 0.97321443
0.45906457 1.00000000 0.98330974
0.77302631 1.00000000 0.99067048
0.92532507 1.00000000 0.99506498
0.99742206 0.99743298 0.99742772
1.00000000 1.00000000 1.00000000
0.00000000 1.00000000 0.62039433
0.00000000 1.00000000 0.62039433
0.00000000 1.00000000 0.64914762
0.30683008 1.00000000 0.73061125
0.67735210 1.00000000 0.84120143
0.88879647 1.00000000 0.93642846
1.00000000 1.00000000 1.00000000
1.00000000 1.00000000 1.00000000
1.00000000 1.00000000 1.00000000
0.00000000 0.20469794 0.60845660
0.00000000 0.20469794 0.60845660
0.00000000 0.18448806 0.59280579
0.00000000 0.15116078 0.72062471
0.12662618 0.14654113 1.00000000
0.40696578 0.19452648 1.00000000
0.73020352 0.00000000 1.00000000
0.91666318 0.00000000 0.91769839
1.00000000 0.00000000 0.79448140
0.00000000 0.20469794 0.60845660
0.00000000 0.20469794 0.60845660
0.00000000 0.18448806 0.59280579
0.00000000 0.15116078 0.72062471
0.12662618 0.14654113 1.00000000
0.40696578 0.19452648 1.00000000
0.73020352 0.00000000 1.00000000
0.91666318 0.00000000 0.91769839
1.00000000 0.00000000 0.79448140
0.00000000 0.23563133 0.66303840
0.00000000 0.23563133 0.66303840
0.00000000 0.21309768 0.64221387
0.00000000 0.13392351 0.68955598
0.08260062 0.13615576 1.00000000
0.39446205 0.19731636 1.00000000
0.73192887 0.00000000 1.00000000
0.93500269 0.00000000 0.94242542
1.00000000 0.00000000 0.80287828
0.00000000 0.33174289 0.83754192
0.00000000 0.33174289 0.83754192
0.00000000 0.30168665 0.84658722
0.04264766 0.36242913 0.97433358
0.29027235 0.43888452 1.00000000
0.50754382 0.46610766 1.00000000
0.81078641 0.38263675 1.00000000
1.00000000 0.28525039 1.00000000
1.00000000 0.35469962 0.84685268
0.10766402 0.53763328 1.00000000
0.10766402 0.53763328 1.00000000
0.19253016 0.56094164 1.00000000
0.33766193 0.61447173 1.00000000
0.48950863 0.67106317 1.00000000
0.64475520 0.69669392 1.00000000
0.88042357 0.65546736 1.00000000
1.00000000 0.61833411 1.00000000
1.00000000 0.64730824 0.91089718
0.29668556 0.71966986 1.00000000
0.29668556 0.71966986 1.00000000
0.35377257 0.73712296 1.00000000
0.47686099 0.77744968 1.00000000
0.62496435 0.82389356 1.00000000
0.74852063 0.85277396 1.00000000
0.89578845 0.84401004 1.00000000
1.00000000 0.81963500 1.00000000
1.00000000 0.83678442 0.96177467
0.29783801 0.83270577 1.00000000
0.29783801 0.83270577 1.00000000
0.36842891 0.84632718 1.00000000
0.51276619 0.87769849 1.00000000
0.67956981 0.91432632 1.00000000
0.81446003 0.93949238 1.00000000
0.92090800 0.94395667 1.00000000
0.99682950 0.93926557 1.00000000
1.00000000 0.94575185 0.99142828
0.00000000 0.91751893 1.00000000
0.00000000 0.91751893 1.00000000
0.13160846 0.92678161 1.00000000
0.43494602 0.94607084 1.00000000
0.68606199 0.96624973 1.00000000
0.85901544 0.97947274 1.00000000
0.95582237 0.98744014 1.00000000
0.99461223 0.99471822 1.00000000
1.00000000 1.00000000 1.00000000
0.00000000 1.00000000 0.95510931
0.00000000 1.00000000 0.95510931
0.00000000 1.00000000 0.96967837
0.00000000 1.00000000 0.98252511
0.56462944 1.00000000 0.99095404
0.84845355 1.00000000 0.99731551
1.00000000 1.00000000 1.00000000
1.00000000 1.00000000 1.00000000
1.00000000 1.00000000 1.00000000
