docs/graphify-batches/corpora/workers-real/openchatcut/assets/luts/CinemaGamut_CanonLog3-to-Canon709_33_Ver.1.0.cube
# Gamut : Cinema Gamut to BT.709
# Gamma : Canon Log 3 to Canon 709
# Range : Full in / Full out
# Version : 1.0
# Creation Date: 2025/6/24
# Copyright(c) 2025 Canon Inc. All Rights Reserved.
LUT_3D_SIZE 33
# LUT_3D_INPUT_RANGE 0.0 1.0
0.00000000 0.00000000 0.00000000
0.00000000 0.00000000 0.00000000
0.00000000 0.00000000 0.00000000
0.00000000 0.00000000 0.00000000
0.00000000 0.00000000 0.00000000
0.11653055 0.00000000 0.00764170
0.18736202 0.00000000 0.00855636
0.26840813 0.00000000 0.00698372
0.36294994 0.00000000 0.00000000
0.42748365 0.00000000 0.00972273
0.50015503 0.00000000 0.01875470
0.57073087 0.00000000 0.03095720
0.63760654 0.00000000 0.04618612
0.70026360 0.00000000 0.06305230
0.75887207 0.00000000 0.07913021
0.81311872 0.00000000 0.09234656
0.86274423 0.00000000 0.10130748
0.90725135 0.00000000 0.10637665
0.94618609 0.00000000 0.10819843
0.97882574 0.00000000 0.10807019
1.00000000 0.00000000 0.10847637
1.00000000 0.00000000 0.11442349
1.00000000 0.00000000 0.12308484
1.00000000 0.02268573 0.13113231
1.00000000 0.06648353 0.13734248
1.00000000 0.10391098 0.14143017
1.00000000 0.13119131 0.14357028
1.00000000 0.15181225 0.14409434
1.00000000 0.16787550 0.14333145
1.00000000 0.18069003 0.14162859
1.00000000 0.19120622 0.13936312
1.00000000 0.20028238 0.13704176
1.00000000 0.20685908 0.13341618
0.00000000 0.00000000 0.00000000
0.00000000 0.00000000 0.00000000
0.00000000 0.00000000 0.00000000
0.00000000 0.00000000 0.00000000
0.00000000 0.00000000 0.00000000
0.11653055 0.00000000 0.00764170
0.18736202 0.00000000 0.00855636
0.26840813 0.00000000 0.00698372
0.36294994 0.00000000 0.00000000
0.42748365 0.00000000 0.00972273
0.50015503 0.00000000 0.01875470
0.57073087 0.00000000 0.03095720
0.63760654 0.00000000 0.04618612
0.70026360 0.00000000 0.06305230
0.75887207 0.00000000 0.07913021
0.81311872 0.00000000 0.09234656
0.86274423 0.00000000 0.10130748
0.90725135 0.00000000 0.10637665
0.94618609 0.00000000 0.10819843
0.97882574 0.00000000 0.10807019
1.00000000 0.00000000 0.10847637
1.00000000 0.00000000 0.11442349
1.00000000 0.00000000 0.12308484
1.00000000 0.02268573 0.13113231
1.00000000 0.06648353 0.13734248
1.00000000 0.10391098 0.14143017
1.00000000 0.13119131 0.14357028
1.00000000 0.15181225 0.14409434
1.00000000 0.16787550 0.14333145
1.00000000 0.18069003 0.14162859
1.00000000 0.19120622 0.13936312
1.00000000 0.20028238 0.13704176
1.00000000 0.20685908 0.13341618
0.00000000 0.00000000 0.00000000
0.00000000 0.00000000 0.00000000
0.00000000 0.00000000 0.00000000
0.00000000 0.00000000 0.00000000
0.00000000 0.00000000 0.00000000
0.11653055 0.00000000 0.00764170
0.18736202 0.00000000 0.00855636
0.26840813 0.00000000 0.00698372
0.36294994 0.00000000 0.00000000
0.42748365 0.00000000 0.00972273
0.50015503 0.00000000 0.01875470
0.57073087 0.00000000 0.03095720
0.63760654 0.00000000 0.04618612
0.70026360 0.00000000 0.06305230
0.75887207 0.00000000 0.07913021
0.81311872 0.00000000 0.09234656
0.86274423 0.00000000 0.10130748
0.90725135 0.00000000 0.10637665
0.94618609 0.00000000 0.10819843
0.97882574 0.00000000 0.10807019
1.00000000 0.00000000 0.10847637
1.00000000 0.00000000 0.11442349
1.00000000 0.00000000 0.12308484
1.00000000 0.02268573 0.13113231
1.00000000 0.06648353 0.13734248
1.00000000 0.10391098 0.14143017
1.00000000 0.13119131 0.14357028
1.00000000 0.15181225 0.14409434
1.00000000 0.16787550 0.14333145
1.00000000 0.18069003 0.14162859
1.00000000 0.19120622 0.13936312
1.00000000 0.20028238 0.13704176
1.00000000 0.20685908 0.13341618
0.00000000 0.00000000 0.00000000
0.00000000 0.00000000 0.00000000
0.00000000 0.00537958 0.00000000
0.00439796 0.02212732 0.00000000
0.00000000 0.00000000 0.00000000
0.11653055 0.00000000 0.00764170
0.18736202 0.00000000 0.00855636
0.26840813 0.00000000 0.00698372
0.36294994 0.00000000 0.00000000
0.42748365 0.00000000 0.00972273
0.50015503 0.00000000 0.01875470
0.57073087 0.00000000 0.03095720
0.63760654 0.00000000 0.04618612
0.70026360 0.00000000 0.06305230
0.75887207 0.00000000 0.07913021
0.81311872 0.00000000 0.09234656
0.86274423 0.00000000 0.10130748
0.90725135 0.00000000 0.10637665
0.94618609 0.00000000 0.10819843
0.97882574 0.00000000 0.10807019
1.00000000 0.00000000 0.10847637
1.00000000 0.00000000 0.11442349
1.00000000 0.00000000 0.12308484
1.00000000 0.02268573 0.13113231
1.00000000 0.06648353 0.13734248
1.00000000 0.10391098 0.14143017
1.00000000 0.13119131 0.14357028
1.00000000 0.15181225 0.14409434
1.00000000 0.16787550 0.14333145
1.00000000 0.18069003 0.14162859
1.00000000 0.19120622 0.13936312
1.00000000 0.20028238 0.13704176
1.00000000 0.20685908 0.13341618
0.00000000 0.00000000 0.00000000
0.00000000 0.00287838 0.00000000
0.00000000 0.01866466 0.00000000
0.00000000 0.03017185 0.00000000
0.00000000 0.01015725 0.00000000
0.11653055 0.00000000 0.00764170
0.18736202 0.00000000 0.00855636
0.26840813 0.00000000 0.00698372
0.36294994 0.00000000 0.00000000
0.42748365 0.00000000 0.00972273
0.50015503 0.00000000 0.01875470
0.57073087 0.00000000 0.03095720
0.63760654 0.00000000 0.04618612
0.70026360 0.00000000 0.06305230
0.75887207 0.00000000 0.07913021
0.81311872 0.00000000 0.09234656
0.86274423 0.00000000 0.10130748
0.90725135 0.00000000 0.10637665
0.94618609 0.00000000 0.10819843
0.97882574 0.00000000 0.10807019
1.00000000 0.00000000 0.10847637
1.00000000 0.00000000 0.11442349
1.00000000 0.00000000 0.12308484
1.00000000 0.02268573 0.13113231
1.00000000 0.06648353 0.13734248
1.00000000 0.10391098 0.14143017
1.00000000 0.13119131 0.14357028
1.00000000 0.15181225 0.14409434
1.00000000 0.16787550 0.14333145
1.00000000 0.18069003 0.14162859
1.00000000 0.19120622 0.13936312
1.00000000 0.20028238 0.13704176
1.00000000 0.20685908 0.13341618
0.00000000 0.07969980 0.00000000
0.00000000 0.07969980 0.00000000
0.00000000 0.07969980 0.00000000
0.00000000 0.07969980 0.00000000
0.00000000 0.07969980 0.00000000
0.07037972 0.07851690 0.00000000
0.15985656 0.06956489 0.00000000
0.24271607 0.05805091 0.00000000
0.32742060 0.04086504 0.00000000
0.41127928 0.01962983 0.00000000
0.49292463 0.00000000 0.00000000
0.57211852 0.00000000 0.00000000
0.64577998 0.00000000 0.00191612
0.71344514 0.00000000 0.01693137
0.77580894 0.00000000 0.03264963
0.83246476 0.00000000 0.04766324
0.88299940 0.00000000 0.06105549
0.92707996 0.00000000 0.07234928
0.96427098 0.00000000 0.08190853
0.99279836 0.00000000 0.09229574
1.00000000 0.00000000 0.10657516
1.00000000 0.00000000 0.12268989
1.00000000 0.04207945 0.13697723
1.00000000 0.09042310 0.14881126
1.00000000 0.12771246 0.15766782
1.00000000 0.15527178 0.16379724
1.00000000 0.17645587 0.16763757
1.00000000 0.19313129 0.16965533
1.00000000 0.20644096 0.17023561
1.00000000 0.21720854 0.16973833
1.00000000 0.22601941 0.16845425
1.00000000 0.23331741 0.16662661
1.00000000 0.23932509 0.16434804
0.00000000 0.12591526 0.00000000
0.00000000 0.12591526 0.00000000
0.00000000 0.12591526 0.00000000
0.00000000 0.12591526 0.00000000
0.00000000 0.12591526 0.00000000
0.03515437 0.13508514 0.00000000
0.12376500 0.13561926 0.00000000
0.20732626 0.13459384 0.00000000
0.29265273 0.12965682 0.00000000
0.38149466 0.11760646 0.00000000
0.47026881 0.09772250 0.00000000
0.55683582 0.06905184 0.00000000
0.63957884 0.03556282 0.00000000
0.71720660 0.00064882 0.00000000
0.78857185 0.00000000 0.00000000
0.85066174 0.00000000 0.00000000
0.90483566 0.00000000 0.00817469
0.94993775 0.00000000 0.02440481
0.98365325 0.00000000 0.04535852
1.00000000 0.00000000 0.07561268
1.00000000 0.00795962 0.10579325
1.00000000 0.05930967 0.12982948
1.00000000 0.10904259 0.14936009
1.00000000 0.14661923 0.16466582
1.00000000 0.17524350 0.17607302
1.00000000 0.19757700 0.18421644
1.00000000 0.21528699 0.18974014
1.00000000 0.22950784 0.19321217
1.00000000 0.24100798 0.19507227
1.00000000 0.25038901 0.19570858
1.00000000 0.25806486 0.19539501
1.00000000 0.26428186 0.19427314
1.00000000 0.26920944 0.19243208
0.00000000 0.17591729 0.00000000
0.00000000 0.17591729 0.00000000
0.00000000 0.17591729 0.00000000
0.00000000 0.17591729 0.00000000
0.00000000 0.17591729 0.00000000
0.00783630 0.18812080 0.00000000
0.09171036 0.19284232 0.00000000
0.18097081 0.19612965 0.00000000
0.26464749 0.19806920 0.00000000
0.35093976 0.19649552 0.00000000
0.44126197 0.18867158 0.00000000
0.53230495 0.17368679 0.00000000
0.62098028 0.15143646 0.00000000
0.70569192 0.12077565 0.00000000
0.78525353 0.07869315 0.00000000
0.85766355 0.03094752 0.00000000
0.92090134 0.00000000 0.00000000
0.96911204 0.00000000 0.00000000
0.99717704 0.00000000 0.02199756
1.00000000 0.04755019 0.07385782
1.00000000 0.10096988 0.11611998
1.00000000 0.14308929 0.14646258
1.00000000 0.17766905 0.17034024
1.00000000 0.20561466 0.18863027
1.00000000 0.22809066 0.20231316
1.00000000 0.24621650 0.21231584
1.00000000 0.26092420 0.21943761
1.00000000 0.27291169 0.22430214
1.00000000 0.28273092 0.22741700
1.00000000 0.29081079 0.22918423
1.00000000 0.29745081 0.22988397
1.00000000 0.30293554 0.22978340
1.00000000 0.30700642 0.22856618
0.00000000 0.22908828 0.00000000
0.00000000 0.22908828 0.00000000
0.00000000 0.22908828 0.00000000
0.00000000 0.22908828 0.00000000
0.00000000 0.22908828 0.00000000
0.00000000 0.24225790 0.00000000
0.05511243 0.24934292 0.00000000
0.15301393 0.25512214 0.00000000
0.24137439 0.25977858 0.00000000
0.32752768 0.26253910 0.00000000
0.41577468 0.26167621 0.00000000
0.50673013 0.25522271 0.00000000
0.59800478 0.24224379 0.00000000
0.68702663 0.22245510 0.00000000
0.77179157 0.19566192 0.00000000
0.85041854 0.16189147 0.00000000
0.92018074 0.12334375 0.00000000
0.97520629 0.09355185 0.00000000
1.00000000 0.11286215 0.01521824
1.00000000 0.15389904 0.08287618
1.00000000 0.18870319 0.13450356
1.00000000 0.21810906 0.17033710
1.00000000 0.24403696 0.19784601
1.00000000 0.26596881 0.21885255
1.00000000 0.28408961 0.23473501
1.00000000 0.29902554 0.24659165
1.00000000 0.31131172 0.25529239
1.00000000 0.32145255 0.26155549
1.00000000 0.32984662 0.26592799
1.00000000 0.33680713 0.26882790
1.00000000 0.34267392 0.27066832
1.00000000 0.34742261 0.27145971
1.00000000 0.35086378 0.27100074
0.00000000 0.28420257 0.00628869
0.00000000 0.28420257 0.00628869
0.00000000 0.28420257 0.00628869
0.00000000 0.28420257 0.00628869
0.00000000 0.28420257 0.00628869
0.00000000 0.29758427 0.00000000
0.01727513 0.30620753 0.00000000
0.11822597 0.31368753 0.00000000
0.21405402 0.32027325 0.00000000
0.30383371 0.32538790 0.00000000
0.39261855 0.32804412 0.00000000
0.48278516 0.32680474 0.00000000
0.57450301 0.32014388 0.00000000
0.66593773 0.30715149 0.00000000
0.75468826 0.28764487 0.00000000
0.83835225 0.26214216 0.00000000
0.91383809 0.23291824 0.00000000
0.97496866 0.20851301 0.00000000
1.00000000 0.21358364 0.01158136
1.00000000 0.23704846 0.09169903
1.00000000 0.26346305 0.15395297
1.00000000 0.28757977 0.19716722
1.00000000 0.30858548 0.22904080
1.00000000 0.32644581 0.25302654
1.00000000 0.34144665 0.27116534
1.00000000 0.35395449 0.28490681
1.00000000 0.36437124 0.29528604
1.00000000 0.37307537 0.30304169
1.00000000 0.38033928 0.30873226
1.00000000 0.38642341 0.31282402
1.00000000 0.39147718 0.31560818
1.00000000 0.39553868 0.31721008
1.00000000 0.39845366 0.31750047
0.00000000 0.34025120 0.01879137
0.00000000 0.34025120 0.01879137
0.00000000 0.34025120 0.01879137
0.00000000 0.34025120 0.01879137
0.00000000 0.34025120 0.01879137
0.00000000 0.35309444 0.00000000
0.00000000 0.36294153 0.00000000
0.07581450 0.37151718 0.00000000
0.18243568 0.37953813 0.00000000
0.27631124 0.38664984 0.00000000
0.36718584 0.39191181 0.00000000
0.45828178 0.39395796 0.00000000
0.55082054 0.39141981 0.00000000
0.64421901 0.38306399 0.00000000
0.73646762 0.36829920 0.00000000
0.82487808 0.34743890 0.00000000
0.90595281 0.32235723 0.00000000
0.97343430 0.29927563 0.00000000
1.00000000 0.29685236 0.00109625
1.00000000 0.31236678 0.09882821
1.00000000 0.33286614 0.17240569
1.00000000 0.35277454 0.22301489
1.00000000 0.37047359 0.26010608
1.00000000 0.38559400 0.28789434
1.00000000 0.39838403 0.30891770
1.00000000 0.40910252 0.32489620
1.00000000 0.41806585 0.33703268
1.00000000 0.42554777 0.34629465
1.00000000 0.43181778 0.35328157
1.00000000 0.43707311 0.35847782
1.00000000 0.44143570 0.36221150
1.00000000 0.44492210 0.36463157
1.00000000 0.44740745 0.36567454
0.00000000 0.39632719 0.03445687
0.00000000 0.39632719 0.03445687
0.00000000 0.39632719 0.03445687
0.00000000 0.39632719 0.03445687
0.00000000 0.39632719 0.03445687
0.00000000 0.40824439 0.00000000
0.00000000 0.41858942 0.00000000
0.03223190 0.42834160 0.00000000
0.14590253 0.43756306 0.00000000
0.24477583 0.44627467 0.00000000
0.33788516 0.45370477 0.00000000
0.43039040 0.45853702 0.00000000
0.52402925 0.45920728 0.00000000
0.61916181 0.45451743 0.00000000
0.71453789 0.44350423 0.00000000
0.80765273 0.42605867 0.00000000
0.89476650 0.40350649 0.00000000
0.96960629 0.38049031 0.00000000
1.00000000 0.37128468 0.00000000
1.00000000 0.38084265 0.09170178
1.00000000 0.39687983 0.18316274
1.00000000 0.41359149 0.24371302
1.00000000 0.42880777 0.28746492
1.00000000 0.44195398 0.32004260
1.00000000 0.45309983 0.34474662
1.00000000 0.46247029 0.36354496
1.00000000 0.47030155 0.37789177
1.00000000 0.47678966 0.38876314
1.00000000 0.48222719 0.39711701
1.00000000 0.48677084 0.40347642
1.00000000 0.49054147 0.40819932
1.00000000 0.49356522 0.41149774
1.00000000 0.49570159 0.41332127
0.00000000 0.45172576 0.04943316
0.00000000 0.45172576 0.04943316
0.00000000 0.45172576 0.04943316
0.00000000 0.45172576 0.04943316
0.00000000 0.45172576 0.04943316
0.00000000 0.46277174 0.01271975
0.00000000 0.47311408 0.00000000
0.00000000 0.48383723 0.00000000
0.09983914 0.49401712 0.00000000
0.20737553 0.50406477 0.00000000
0.30355507 0.51321898 0.00000000
0.39751404 0.52039910 0.00000000
0.49230029 0.52410197 0.00000000
0.58862650 0.52270215 0.00000000
0.68626301 0.51525760 0.00000000
0.78331048 0.50114866 0.00000000
0.87644021 0.48095758 0.00000000
0.95959967 0.45789324 0.00000000
1.00000000 0.44196106 0.00000000
1.00000000 0.44538970 0.06049859
1.00000000 0.45706859 0.18147877
1.00000000 0.47076182 0.25620287
1.00000000 0.48380608 0.30889109
1.00000000 0.49530752 0.34768992
1.00000000 0.50509901 0.37686020
1.00000000 0.51329165 0.39904458
1.00000000 0.52015908 0.41603700
1.00000000 0.52589879 0.42906617
1.00000000 0.53069391 0.43905667
1.00000000 0.53460986 0.44661967
1.00000000 0.53781713 0.45235393
1.00000000 0.54038725 0.45652224
1.00000000 0.54218358 0.45911421
0.00000000 0.50573309 0.05914271
0.00000000 0.50573309 0.05914271
0.00000000 0.50573309 0.05914271
0.00000000 0.50573309 0.05914271
0.00000000 0.50573309 0.05914271
0.00000000 0.51595706 0.02193626
0.00000000 0.52607773 0.00000000
0.00000000 0.53750242 0.00000000
0.03855765 0.54860352 0.00000000
0.16035348 0.55957990 0.00000000
0.26232957 0.57011789 0.00000000
0.35850642 0.57917143 0.00000000
0.45437204 0.58545504 0.00000000
0.55181778 0.58741893 0.00000000
0.65075891 0.58342671 0.00000000
0.75050477 0.57290256 0.00000000
0.84842499 0.55569288 0.00000000
0.93955500 0.53353641 0.00000000
1.00000000 0.51256499 0.00000000
1.00000000 0.50859946 0.00289397
1.00000000 0.51517940 0.16343299
1.00000000 0.52553991 0.25845203
1.00000000 0.53625717 0.32310413
1.00000000 0.54600723 0.36979767
1.00000000 0.55442028 0.40443503
1.00000000 0.56148892 0.43060197
1.00000000 0.56738740 0.45060621
1.00000000 0.57230850 0.46600105
1.00000000 0.57641855 0.47783171
1.00000000 0.57981834 0.48690251
1.00000000 0.58258752 0.49378453
1.00000000 0.58476127 0.49893314
1.00000000 0.58621930 0.50231232
0.00000000 0.55748361 0.06063955
0.00000000 0.55748361 0.06063955
0.00000000 0.55748361 0.06063955
0.00000000 0.55748361 0.06063955
0.00000000 0.55748361 0.06063955
0.00000000 0.56696985 0.02400372
0.00000000 0.57662892 0.00000000
0.00000000 0.58827293 0.00000000
0.00000000 0.60032809 0.00000000
0.09558851 0.61217079 0.00000000
0.21120121 0.62394028 0.00000000
0.31186589 0.63454380 0.00000000
0.40948867 0.64289978 0.00000000
0.50781955 0.64769716 0.00000000
0.60799199 0.64743668 0.00000000
0.70924906 0.64053254 0.00000000
0.81041030 0.62687164 0.00000000
0.90774312 0.60702156 0.00000000
0.99315787 0.58466846 0.00000000
1.00000000 0.57181380 0.00000000
1.00000000 0.57232563 0.12046807
1.00000000 0.57868213 0.24770515
1.00000000 0.58672024 0.32852569
1.00000000 0.59452018 0.38554107
1.00000000 0.60141649 0.42714757
1.00000000 0.60727369 0.45809537
1.00000000 0.61213461 0.48154183
1.00000000 0.61617195 0.49951415
1.00000000 0.61951738 0.51339065
1.00000000 0.62232257 0.52408676
1.00000000 0.62462889 0.53230862
1.00000000 0.62643561 0.53846379
1.00000000 0.62757509 0.54270045
0.00000000 0.60623955 0.05216800
0.00000000 0.60623955 0.05216800
0.00000000 0.60623955 0.05216800
0.00000000 0.60623955 0.05216800
0.00000000 0.60623955 0.05216800
0.00000000 0.61508341 0.01695697
0.00000000 0.62425294 0.00000000
0.00000000 0.63588416 0.00000000
0.00000000 0.64864718 0.00000000
0.00796447 0.66135570 0.00000000
0.14419112 0.67402086 0.00000000
0.25534604 0.68598166 0.00000000
0.35662146 0.69618576 0.00000000
0.45640980 0.70330639 0.00000000
0.55737159 0.70613900 0.00000000
0.66008277 0.70333234 0.00000000
0.76315732 0.69339763 0.00000000
0.86474542 0.67680282 0.00000000
0.95931320 0.65518553 0.00000000
1.00000000 0.63515492 0.00000000
1.00000000 0.62896321 0.02882144
1.00000000 0.63063621 0.21857815
1.00000000 0.63548322 0.32274802
1.00000000 0.64104556 0.39351678
1.00000000 0.64623760 0.44412362
1.00000000 0.65072465 0.48118742
1.00000000 0.65449282 0.50880352
1.00000000 0.65758477 0.52975837
1.00000000 0.66012197 0.54582844
1.00000000 0.66220499 0.55826192
1.00000000 0.66392328 0.56781229
1.00000000 0.66524248 0.57502324
1.00000000 0.66601538 0.58004390
0.00000000 0.65142830 0.03346260
0.00000000 0.65142830 0.03346260
0.00000000 0.65142830 0.03346260
0.00000000 0.65142830 0.03346260
0.00000000 0.65142830 0.03346260
0.00000000 0.65972284 0.00030274
0.00000000 0.66842811 0.00000000
0.00000000 0.67989947 0.00000000
0.00000000 0.69305020 0.00000000
0.00000000 0.70653317 0.00000000
0.04522252 0.71993442 0.00000000
0.18397203 0.73318057 0.00000000
0.29409798 0.74487304 0.00000000
0.39705945 0.75407705 0.00000000
0.49924363 0.75953679 0.00000000
0.60271651 0.76006236 0.00000000
0.70758839 0.75454948 0.00000000
0.81181730 0.74164533 0.00000000
0.91257372 0.72253218 0.00000000
1.00000000 0.70035408 0.00000000
1.00000000 0.68567148 0.00000000
1.00000000 0.68160661 0.15821097
1.00000000 0.68265335 0.30087566
1.00000000 0.68557560 0.39106338
1.00000000 0.68885177 0.45378740
1.00000000 0.69182429 0.49879126
1.00000000 0.69432302 0.53173629
1.00000000 0.69638583 0.55626906
1.00000000 0.69802384 0.57485160
1.00000000 0.69933429 0.58909972
1.00000000 0.70034931 0.60006175
1.00000000 0.70108745 0.60832785
1.00000000 0.70136391 0.61413344
0.00000000 0.69268537 0.00540686
0.00000000 0.69268537 0.00540686
0.00000000 0.69268537 0.00540686
0.00000000 0.69268537 0.00540686
0.00000000 0.69268537 0.00540686
0.00000000 0.70051330 0.00000000
0.00000000 0.70878962 0.00000000
0.00000000 0.71988979 0.00000000
0.00000000 0.73309838 0.00000000
0.00000000 0.74720720 0.00000000
0.00000000 0.76146065 0.00000000
0.08270244 0.77568941 0.00000000
0.21797512 0.78880591 0.00000000
0.32841465 0.79985642 0.00000000
0.43349996 0.80757686 0.00000000
0.53803752 0.81101551 0.00000000
0.64371400 0.80903130 0.00000000
0.75024529 0.80079535 0.00000000
0.85483966 0.78512677 0.00000000
0.95325263 0.76406659 0.00000000
1.00000000 0.74258179 0.00000000
1.00000000 0.73200611 0.02236807
1.00000000 0.72844861 0.25420481
1.00000000 0.72824806 0.37386261
1.00000000 0.72926640 0.45358030
1.00000000 0.73053985 0.50933771
1.00000000 0.73165465 0.54926399
1.00000000 0.73251872 0.57840601
1.00000000 0.73317081 0.60001977
1.00000000 0.73361089 0.61634529
1.00000000 0.73387617 0.62877277
1.00000000 0.73392258 0.63813870
1.00000000 0.73360716 0.64469483
0.00000000 0.72984017 0.00000000
0.00000000 0.72984017 0.00000000
0.00000000 0.72984017 0.00000000
0.00000000 0.72984017 0.00000000
0.00000000 0.72984017 0.00000000
0.00000000 0.73727265 0.00000000
0.00000000 0.74516937 0.00000000
0.00000000 0.75587352 0.00000000
0.00000000 0.76894695 0.00000000
0.00000000 0.78341117 0.00000000
0.00000000 0.79847549 0.00000000
0.00000000 0.81345893 0.00000000
0.11571937 0.82790886 0.00000000
0.24733799 0.84049241 0.00000000
0.35911602 0.85031285 0.00000000
0.46629401 0.85625128 0.00000000
0.57295726 0.85739397 0.00000000
0.68039205 0.85286338 0.00000000
0.78799605 0.84200665 0.00000000
0.89204347 0.82388978 0.00000000
0.98612102 0.80161879 0.00000000
1.00000000 0.78292157 0.00000000
1.00000000 0.77345571 0.16190414
1.00000000 0.76933608 0.33474776
1.00000000 0.76769593 0.43957333
1.00000000 0.76699387 0.51055676
1.00000000 0.76657480 0.56007070
1.00000000 0.76614949 0.59530434
1.00000000 0.76566432 0.62088016
1.00000000 0.76515147 0.63973529
1.00000000 0.76456987 0.65384314
1.00000000 0.76387590 0.66432909
1.00000000 0.76285527 0.67162345
0.00000000 0.76289272 0.00000000
0.00000000 0.76289272 0.00000000
0.00000000 0.76289272 0.00000000
0.00000000 0.76289272 0.00000000
0.00000000 0.76289272 0.00000000
0.00000000 0.76999121 0.00000000
0.00000000 0.77755627 0.00000000
0.00000000 0.78789278 0.00000000
0.00000000 0.80078619 0.00000000
0.00000000 0.81522150 0.00000000
0.00000000 0.83085925 0.00000000
0.00000000 0.84660859 0.00000000
0.00000000 0.86220746 0.00000000
0.14300160 0.87617918 0.00000000
0.27320269 0.88784199 0.00000000
0.38675641 0.89599827 0.00000000
0.49585541 0.89988910 0.00000000
0.60425371 0.89862072 0.00000000
0.71292248 0.89158219 0.00000000
0.82095002 0.87830167 0.00000000
0.92352380 0.85810880 0.00000000
1.00000000 0.83516817 0.00000000
1.00000000 0.81858690 0.00000000
1.00000000 0.80950194 0.25973963
1.00000000 0.80450344 0.40554832
1.00000000 0.80147743 0.49888831
1.00000000 0.79929434 0.56212243
1.00000000 0.79747227 0.60590234
1.00000000 0.79578819 0.63679557
1.00000000 0.79418815 0.65901462
1.00000000 0.79268218 0.67519122
1.00000000 0.79115172 0.68695734
1.00000000 0.78937287 0.69495341
0.00000000 0.79197919 0.00000000
0.00000000 0.79197919 0.00000000
0.00000000 0.79197919 0.00000000
0.00000000 0.79197919 0.00000000
0.00000000 0.79197919 0.00000000
0.00000000 0.79879277 0.00000000
0.00000000 0.80606829 0.00000000
0.00000000 0.81606888 0.00000000
0.00000000 0.82874344 0.00000000
0.00000000 0.84301279 0.00000000
0.00000000 0.85865734 0.00000000
0.00000000 0.87522794 0.00000000
0.00000000 0.89182156 0.00000000
0.00000000 0.90709754 0.00000000
0.16654586 0.92031883 0.00000000
0.29708955 0.93047763 0.00000000
0.41215533 0.93675110 0.00000000
0.52281929 0.93842381 0.00000000
0.63239182 0.93474198 0.00000000
0.74162514 0.92534152 0.00000000
0.84932057 0.90992214 0.00000000
0.94941394 0.88807064 0.00000000
1.00000000 0.86512717 0.00000000
1.00000000 0.84987777 0.10291311
1.00000000 0.84048658 0.34098964
1.00000000 0.83445277 0.46896516
1.00000000 0.83018513 0.55235827
1.00000000 0.82676591 0.60848915
1.00000000 0.82379692 0.64694196
1.00000000 0.82107345 0.67373719
1.00000000 0.81852551 0.69271366
1.00000000 0.81608605 0.70607081
1.00000000 0.81344809 0.71483060
0.00000000 0.81732807 0.00000000
0.00000000 0.81732807 0.00000000
0.00000000 0.81732807 0.00000000
0.00000000 0.81732807 0.00000000
0.00000000 0.81732807 0.00000000
0.00000000 0.82389624 0.00000000
0.00000000 0.83091415 0.00000000
0.00000000 0.84060169 0.00000000
0.00000000 0.85303446 0.00000000
0.00000000 0.86705207 0.00000000
0.00000000 0.88270377 0.00000000
0.00000000 0.89956803 0.00000000
0.00000000 0.91714206 0.00000000
0.00000000 0.93362902 0.00000000
0.00609180 0.94809783 0.00000000
0.18964174 0.95999368 0.00000000
0.32082781 0.96824536 0.00000000
0.43704694 0.97237529 0.00000000
0.54857122 0.97171045 0.00000000
0.65826772 0.96579184 0.00000000
0.76700021 0.95432327 0.00000000
0.87333761 0.93716428 0.00000000
0.96955367 0.91415119 0.00000000
1.00000000 0.89205237 0.00000000
1.00000000 0.87684850 0.22356156
1.00000000 0.86676552 0.41225794
1.00000000 0.85974402 0.52607030
